X:45
T:Sions House. TJD.45
M:3/8
L:1/8
Q:3/8=50
S:T.J.Dixon MS1, Lincolnshire, early 19thC
N:This is identical to tune #11
R:waltz
A:Lincolnshire, Holton le Moor
Z:vmp.R.Greig2010
K:G
BdB|cec|BdB|A3|BdB|cec|BcA|G3:|!
gbg|faf|ege|d3|gbg|afd|ge^c|”^Da Capo”d3|]

